X: 26934
T: Miss Betty Fitchet's Wedding
R: reel
M: 4/4
K: Gmajor
|:DGFA GBAc|B2d2 dcBc|A2c2 cBA2|GDEF GABd|
DGFA GBAc|B2d2 dcBc|A2cA FDEF|G2BA G4:|
[K:D]A2d2 FGA2|G2B2 A2d2|cdef gecA|dfAd FADA|
A2d2 FGA2|G2B2 A2d2|cdef gecA|1 d2fe d2 FG:|2 d2fe d2D2||

